Obsidian-SemiLight/actions/22s/copy-coordinates.svg

<svg viewBox="0 0 22 22" xmlns="http://www.w3.org/2000/svg"><path d="m7 3v11 .208984l-5.078125 5.080078s.6796631.710328.6894531.710938c0 0 4.0200844-4.008369 5.0214844-5.011719l4.3671875.011719v3h2v2h3 1l2-2v-1-5h-1v-2h-7v4h-4v-11zm6 8h5v1h-4v5h-1zm2 2h4v4h-2v2h-2z" fill="#4d4d4d"/></svg>

<svg xmlns="http://www.w3.org/2000/svg" viewBox="0 0 22 22">
  <defs id="defs3051">
    <style type="text/css" id="current-color-scheme">
      .ColorScheme-Text {
        color:#4d4d4d;
      }
      </style>
  </defs>
 <path 
     style="fill:currentColor;fill-opacity:1;stroke:none" 
	 d="M 7 3 L 7 14 L 7 14.208984 L 1.921875 19.289062 C 1.921875 19.289062 2.6015381 19.99939 2.6113281 20 C 2.6113281 20 6.6314125 15.991631 7.6328125 14.988281 L 12 15 L 12 18 L 14 18 L 14 20 L 17 20 L 18 20 L 20 18 L 20 17 L 20 12 L 19 12 L 19 10 L 12 10 L 12 14 L 8 14 L 8 3 L 7 3 z M 13 11 L 18 11 L 18 12 L 14 12 L 14 17 L 13 17 L 13 11 z M 15 13 L 19 13 L 19 17 L 17 17 L 17 19 L 15 19 L 15 13 z "
	 class="ColorScheme-Text"
     />
</svg>
